svg/cloud-filled.svg

<svg xmlns="http://www.w3.org/2000/svg" width="24" height="24" viewBox="0 0 24 24">
	<g fill="currentColor">
		<path d="M7 19c-2.5 0 -4 -2 -4 -4c0 -2 1.5 -4 4 -4c0 -3.5 2 -6 5 -6c3 0 5 2.5 5 5v1c2.5 0 4 2 4 4c0 2 -1.5 4 -4 4Z" fill-opacity="0">
			<animate attributeName="fill-opacity" values="0;1" begin="0.8s" dur="0.5s" fill="freeze" />
		</path>
	</g>
	<g fill="none" stroke="currentColor" stroke-width="2" stroke-linecap="round" stroke-linejoin="round">
		<path d="M12 19h-5c-2.5 0 -4 -2 -4 -4c0 -2 1.5 -4 4 -4c1 0 1.5 0.5 1.5 0.5M12 19h5c2.5 0 4 -2 4 -4c0 -2 -1.5 -4 -4 -4c-1 0 -1.5 0.5 -1.5 0.5" stroke-dasharray="24" stroke-dashoffset="24">
			<animate attributeName="stroke-dashoffset" values="24;0" dur="0.4s" fill="freeze" />
		</path>
		<path d="M7 11v-1c0 -2.5 2 -5 5 -5M17 11v-1c0 -2.5 -2 -5 -5 -5" stroke-dasharray="24" stroke-dashoffset="24">
			<animate attributeName="stroke-dashoffset" values="24;0" begin="0.4s" dur="0.3s" fill="freeze" />
		</path>
	</g>
</svg>

<svg xmlns="http://www.w3.org/2000/svg" width="24" height="24" viewBox="0 0 24 24">
	<path d="M9 7L12 5L15 7L21 15L18 19H6L3 15L9 7Z" fill="currentColor" fill-opacity="0">
		<animate attributeName="fill-opacity" values="0;1" begin="0.8s" dur="0.5s" fill="freeze" />
	</path>
	<g fill="none" stroke="currentColor" stroke-width="2" stroke-linecap="round" stroke-linejoin="round">
		<path d="M12 19C12 19 9.5 19 7 19C4.5 19 3 17 3 15C3 13 4.5 11 7 11C8 11 8.5 11.5 8.5 11.5M12 19H17C19.5 19 21 17 21 15C21 13 19.5 11 17 11C16 11 15.5 11.5 15.5 11.5" stroke-dasharray="20" stroke-dashoffset="20">
			<animate attributeName="stroke-dashoffset" values="20;0" dur="0.4s" fill="freeze" />
		</path>
		<path d="M17 11C17 11 17 10.5 17 10C17 7.5 15 5 12 5M7 11V10C7 7.5 9 5 12 5" stroke-dasharray="9" stroke-dashoffset="9">
			<animate attributeName="stroke-dashoffset" values="9;0" begin="0.5s" dur="0.3s" fill="freeze" />
		</path>
	</g>
</svg>
